;FLAVOR:Marlin
;TIME:3917
;Filament used: 2.24212m
;Layer height: 0.1
;Generated with Cura_SteamEngine 3.2.1
M190 S60
M104 S210
M109 S210
M82 ;absolute extrusion mode
G28 ;Home
G1 Z15.0 F6000 ;Move the platform down 15mm
;Prime the extruder
G92 E0
G1 F200 E3
G92 E0
;LAYER_COUNT:40
;LAYER:0
M107
M204 S5000
M205 X30 Y30
G0 F3600 X94.498 Y184.898 Z0.2
M204 S500
M205 X20 Y20
;TYPE:SKIRT
G1 F1800 X96.707 Y183.812 E0.08187
G1 X97.513 Y183.482 E0.11084
G1 X99.481 Y182.828 E0.17981
G1 X100.171 Y182.64 E0.2036
G1 X100.977 Y182.522 E0.23069
G1 X102.81 Y182.372 E0.29186
G1 X103.556 Y182.355 E0.31668
G1 X110.06 Y182.583 E0.53314
G1 X110.973 Y182.681 E0.56368
G1 X115.312 Y183.465 E0.71033
G1 X120.616 Y184.185 E0.88836
G1 X125.889 Y184.6 E1.06428
G1 X131.173 Y184.716 E1.24007
G1 X136.474 Y184.532 E1.41649
G1 X141.737 Y184.051 E1.59227
G1 X146.893 Y183.297 E1.76558
G1 X147.605 Y183.234 E1.78936
G1 X148.011 Y183.233 E1.80286
G1 X153.515 Y183.398 E1.98601
G1 X154.316 Y183.472 E2.01276
G1 X157.348 Y183.948 E2.11484
G1 X158.047 Y184.099 E2.13863
G1 X158.79 Y184.352 E2.16473
G1 X160.708 Y185.141 E2.23371
G1 X161.481 Y185.522 E2.26237
G1 X165.919 Y188.093 E2.43296
G1 X166.441 Y188.43 E2.45363
G1 X167.877 Y189.46 E2.51241
G1 X168.33 Y189.818 E2.53161
G1 X169.196 Y190.566 E2.56967
G1 X169.696 Y191.046 E2.59272
G1 X170.528 Y191.939 E2.63332
G1 X170.985 Y192.489 E2.6571
G1 X171.397 Y193.118 E2.68211
G1 X175.017 Y199.43 E2.92412
G1 X175.337 Y200.069 E2.94789
G1 X175.62 Y200.859 E2.9758
G1 X175.782 Y201.427 E2.99545
G1 X175.94 Y202.133 E3.01951
G1 X176.907 Y207.953 E3.21574
G1 X176.977 Y208.541 E3.23543
G1 X177.088 Y210.079 E3.28672
G1 X177.089 Y210.987 E3.31692
G1 X176.916 Y213.459 E3.39934
G1 X176.868 Y213.912 E3.41449
G1 X176.575 Y215.976 E3.48383
G1 X176.489 Y216.453 E3.49995
G1 X176.235 Y217.606 E3.53922
G1 X176.168 Y217.881 E3.54863
G1 X175.883 Y218.948 E3.58537
G1 X175.712 Y219.489 E3.60424
G1 X175.306 Y220.602 E3.64364
G1 X174.918 Y221.464 E3.67508
G1 X174.528 Y222.182 E3.70226
G1 X174.152 Y222.79 E3.72604
G1 X173.906 Y223.12 E3.73973
G1 X169.273 Y228.923 E3.9867
G1 X168.814 Y229.438 E4.00965
G1 X168.172 Y230.085 E4.03996
G1 X167.641 Y230.564 E4.06375
G1 X167.211 Y230.881 E4.08152
G1 X162.472 Y234.081 E4.2717
G1 X161.745 Y234.505 E4.2997
G1 X160.772 Y234.99 E4.33586
G1 X160.105 Y235.276 E4.35999
G1 X158.989 Y235.682 E4.39949
G1 X158.109 Y235.933 E4.42993
G1 X156.983 Y236.168 E4.46819
G1 X156.455 Y236.255 E4.48598
G1 X153.922 Y236.566 E4.57087
G1 X153.242 Y236.613 E4.59354
G1 X151.892 Y236.634 E4.63844
G1 X151.237 Y236.611 E4.66024
G1 X148.744 Y236.394 E4.74347
G1 X148.389 Y236.353 E4.75536
G1 X141.084 Y235.303 E5.00082
G1 X135.811 Y234.882 E5.17676
G1 X130.528 Y234.759 E5.35252
G1 X125.246 Y234.936 E5.5283
G1 X119.962 Y235.413 E5.70476
G1 X114.649 Y236.197 E5.88338
G1 X111.824 Y236.707 E5.97886
G1 X111.339 Y236.776 E5.99516
G1 X109.843 Y236.929 E6.04517
G1 X109.383 Y236.959 E6.06051
G1 X107.944 Y237.002 E6.10839
G1 X107.484 Y236.999 E6.12369
G1 X105.962 Y236.935 E6.17436
G1 X105.498 Y236.899 E6.18983
G1 X104.015 Y236.728 E6.23949
G1 X103.468 Y236.641 E6.25791
G1 X101.612 Y236.262 E6.32091
G1 X100.851 Y236.057 E6.34713
G1 X98.277 Y235.191 E6.43745
G1 X97.62 Y234.929 E6.46098
G1 X96.34 Y234.334 E6.50793
G1 X95.662 Y233.967 E6.53357
G1 X91.156 Y231.169 E6.70998
G1 X90.47 Y230.678 E6.73804
G1 X88.511 Y229.069 E6.82236
G1 X88.388 Y228.965 E6.82771
G1 X86.591 Y227.412 E6.90671
G1 X86.238 Y227.083 E6.92276
G1 X84.959 Y225.797 E6.98308
G1 X84.484 Y225.263 E7.00685
G1 X84.157 Y224.811 E7.02541
G1 X83.727 Y224.16 E7.05136
G1 X83.399 Y223.606 E7.07277
G1 X81.408 Y219.81 E7.21534
G1 X81.199 Y219.372 E7.23148
G1 X80.038 Y216.68 E7.32899
G1 X79.704 Y215.687 E7.36384
G1 X79.332 Y214.189 E7.41517
G1 X79.219 Y213.627 E7.43424
G1 X78.774 Y210.756 E7.53087
G1 X78.714 Y210.226 E7.54861
G1 X78.577 Y208.282 E7.61343
G1 X78.571 Y207.479 E7.64014
G1 X78.606 Y206.846 E7.66122
G1 X78.685 Y206.135 E7.68502
G1 X78.853 Y205.405 E7.70993
G1 X79.389 Y203.57 E7.77351
G1 X79.518 Y203.175 E7.78733
G1 X81.431 Y197.918 E7.9734
G1 X81.713 Y197.261 E7.99718
G1 X82.066 Y196.639 E8.02097
G1 X82.421 Y196.142 E8.04128
G1 X84.373 Y193.669 E8.14607
G1 X84.764 Y193.219 E8.1659
G1 X88.641 Y189.151 E8.3528
G1 X89.163 Y188.661 E8.37662
G1 X89.526 Y188.379 E8.39191
G1 X93.574 Y185.454 E8.55801
G1 X94.176 Y185.068 E8.5818
G1 X94.498 Y184.898 E8.59391
M204 S5000
M205 X30 Y30
G0 F3600 X94.675 Y185.257
M204 S500
M205 X20 Y20
G1 F1800 X96.884 Y184.171 E8.67578
G1 X97.639 Y183.861 E8.70293
G1 X99.607 Y183.207 E8.7719
G1 X100.276 Y183.027 E8.79494
G1 X101.01 Y182.921 E8.81961
G1 X102.843 Y182.771 E8.88078
G1 X103.542 Y182.755 E8.90403
G1 X110.046 Y182.983 E9.12049
G1 X110.902 Y183.075 E9.14913
G1 X115.257 Y183.861 E9.29631
G1 X120.566 Y184.582 E9.47451
G1 X125.849 Y184.998 E9.65077
G1 X131.196 Y185.116 E9.82865
G1 X136.49 Y184.932 E10.00484
G1 X141.793 Y184.447 E10.18195
G1 X146.951 Y183.693 E10.35533
G1 X147.641 Y183.633 E10.37837
G1 X147.999 Y183.633 E10.39028
G1 X153.503 Y183.798 E10.57342
G1 X154.254 Y183.868 E10.59851
G1 X157.286 Y184.344 E10.70059
G1 X157.962 Y184.49 E10.72359
G1 X158.638 Y184.722 E10.74736
G1 X160.556 Y185.511 E10.81634
G1 X161.281 Y185.868 E10.84322
G1 X165.719 Y188.439 E11.01381
G1 X166.208 Y188.755 E11.03317
G1 X167.644 Y189.785 E11.09195
G1 X168.069 Y190.12 E11.10995
G1 X168.935 Y190.868 E11.14801
G1 X169.403 Y191.319 E11.16963
G1 X170.235 Y192.212 E11.21022
G1 X170.677 Y192.745 E11.23325
G1 X171.05 Y193.317 E11.25597
G1 X174.67 Y199.629 E11.49798
G1 X174.979 Y200.249 E11.52102
G1 X175.235 Y200.968 E11.5464
G1 X175.397 Y201.536 E11.56605
G1 X175.546 Y202.199 E11.58865
G1 X176.513 Y208.019 E11.78488
G1 X176.578 Y208.57 E11.80333
G1 X176.689 Y210.108 E11.85462
G1 X176.69 Y210.959 E11.88292
G1 X176.517 Y213.431 E11.96534
G1 X176.472 Y213.855 E11.97952
G1 X176.179 Y215.919 E12.04886
G1 X176.099 Y216.367 E12.064
G1 X175.845 Y217.52 E12.10327
G1 X175.782 Y217.777 E12.11207
G1 X175.497 Y218.844 E12.1488
G1 X175.337 Y219.352 E12.16651
G1 X174.931 Y220.465 E12.20592
G1 X174.566 Y221.273 E12.23541
G1 X174.176 Y221.991 E12.26258
G1 X173.811 Y222.579 E12.2856
G1 X173.593 Y222.871 E12.29772
G1 X168.96 Y228.674 E12.5447
G1 X168.53 Y229.156 E12.56618
G1 X167.888 Y229.803 E12.5965
G1 X167.373 Y230.266 E12.61953
G1 X166.987 Y230.55 E12.63547
G1 X162.248 Y233.75 E12.82566
G1 X161.567 Y234.147 E12.85188
G1 X160.594 Y234.632 E12.88804
G1 X159.968 Y234.9 E12.91069
G1 X158.852 Y235.306 E12.95018
G1 X158.027 Y235.541 E12.97872
G1 X156.901 Y235.776 E13.01697
G1 X156.406 Y235.858 E13.03366
G1 X153.873 Y236.169 E13.11854
G1 X153.235 Y236.213 E13.13981
G1 X151.885 Y236.234 E13.18472
G1 X151.272 Y236.212 E13.20512
G1 X148.779 Y235.995 E13.28835
G1 X148.446 Y235.957 E13.2995
G1 X141.125 Y234.905 E13.5455
G1 X135.835 Y234.482 E13.72201
G1 X130.541 Y234.359 E13.89813
G1 X125.215 Y234.537 E14.07537
G1 X119.919 Y235.016 E14.25224
G1 X114.585 Y235.803 E14.43157
G1 X111.753 Y236.314 E14.52728
G1 X111.298 Y236.378 E14.54257
G1 X109.802 Y236.531 E14.59258
G1 X109.371 Y236.559 E14.60695
G1 X107.932 Y236.602 E14.65483
G1 X107.501 Y236.6 E14.66917
G1 X105.979 Y236.536 E14.71983
G1 X105.544 Y236.502 E14.73434
G1 X104.061 Y236.331 E14.784
G1 X103.548 Y236.249 E14.80128
G1 X101.692 Y235.87 E14.86428
G1 X100.979 Y235.678 E14.88884
G1 X98.405 Y234.812 E14.97917
G1 X97.789 Y234.566 E15.00123
G1 X96.509 Y233.971 E15.04818
G1 X95.873 Y233.627 E15.07223
G1 X91.367 Y230.829 E15.24864
G1 X90.724 Y230.369 E15.27493
G1 X88.765 Y228.76 E15.35925
G1 X88.65 Y228.663 E15.36425
G1 X86.853 Y227.11 E15.44325
G1 X86.522 Y226.801 E15.45831
G1 X85.243 Y225.515 E15.51864
G1 X84.784 Y224.997 E15.54166
G1 X84.491 Y224.591 E15.55831
G1 X84.061 Y223.94 E15.58426
G1 X83.754 Y223.42 E15.60434
G1 X81.763 Y219.624 E15.74691
G1 X81.567 Y219.213 E15.76205
G1 X80.406 Y216.521 E15.85956
G1 X80.092 Y215.591 E15.89221
G1 X79.72 Y214.093 E15.94355
G1 X79.614 Y213.566 E15.96143
G1 X79.169 Y210.695 E16.05806
G1 X79.113 Y210.198 E16.07469
G1 X78.976 Y208.254 E16.13951
G1 X78.97 Y207.501 E16.16456
G1 X79.005 Y206.868 E16.18564
G1 X79.083 Y206.18 E16.20867
G1 X79.237 Y205.517 E16.23131
G1 X79.773 Y203.682 E16.29489
G1 X79.894 Y203.312 E16.30784
G1 X81.807 Y198.055 E16.4939
G1 X82.081 Y197.419 E16.51694
G1 X82.426 Y196.819 E16.53996
G1 X82.735 Y196.39 E16.55754
G1 X84.687 Y193.917 E16.66233
G1 X85.054 Y193.495 E16.68093
G1 X88.931 Y189.427 E16.86784
G1 X89.437 Y188.954 E16.89088
G1 X89.76 Y188.703 E16.90448
G1 X93.808 Y185.778 E17.07059
G1 X94.675 Y185.257 E17.10423
M204 S5000
M205 X30 Y30
G0 F3600 X94.851 Y185.615
M204 S500
M205 X20 Y20
G1 F1800 X97.06 Y184.529 E17.1861
G1 X97.765 Y184.241 E17.21143
G1 X99.733 Y183.587 E17.28041
G1 X100.379 Y183.414 E17.30265
G1 X101.042 Y183.32 E17.32492
G1 X102.875 Y183.17 E17.38609
G1 X103.528 Y183.154 E17.40782
G1 X110.032 Y183.382 E17.62428
G1 X110.831 Y183.468 E17.651
G1 X115.201 Y184.257 E17.7987
G1 X120.515 Y184.979 E17.97707
G1 X125.845 Y185.398 E18.15489
G1 X131.183 Y185.516 E18.33248
G1 X136.521 Y185.33 E18.51013
G1 X141.851 Y184.843 E18.68814
G1 X147.009 Y184.089 E18.86152
G1 X147.987 Y184.033 E18.8941
G1 X153.491 Y184.198 E19.07725
G1 X154.192 Y184.263 E19.10067
G1 X157.224 Y184.739 E19.20275
G1 X157.877 Y184.882 E19.22498
G1 X158.485 Y185.092 E19.24637
G1 X160.403 Y185.881 E19.31535
G1 X161.08 Y186.214 E19.34045
G1 X165.518 Y188.785 E19.51104
G1 X165.975 Y189.081 E19.52915
G1 X167.411 Y190.111 E19.58792
G1 X167.808 Y190.423 E19.60472
G1 X168.674 Y191.171 E19.64278
G1 X169.11 Y191.592 E19.66294
G1 X169.942 Y192.485 E19.70353
G1 X170.368 Y193 E19.72576
G1 X170.703 Y193.516 E19.74622
G1 X174.323 Y199.828 E19.98823
G1 X174.62 Y200.427 E20.01047
G1 X174.85 Y201.078 E20.03344
G1 X175.012 Y201.646 E20.05308
G1 X175.151 Y202.264 E20.07415
G1 X176.118 Y208.084 E20.27038
G1 X176.179 Y208.599 E20.28763
G1 X176.29 Y210.137 E20.33891
G1 X176.291 Y210.931 E20.36532
G1 X176.118 Y213.403 E20.44774
G1 X176.076 Y213.799 E20.46099
G1 X175.783 Y215.863 E20.53032
G1 X175.708 Y216.281 E20.54445
G1 X175.454 Y217.434 E20.58372
G1 X175.395 Y217.674 E20.59194
G1 X175.11 Y218.741 E20.62867
G1 X174.961 Y219.215 E20.6452
G1 X174.555 Y220.328 E20.6846
G1 X174.215 Y221.082 E20.71211
G1 X173.825 Y221.8 E20.73929
G1 X173.28 Y222.621 E20.77206
G1 X168.647 Y228.424 E21.01904
G1 X168.246 Y228.874 E21.03909
G1 X167.604 Y229.521 E21.0694
G1 X167.105 Y229.967 E21.09166
G1 X166.763 Y230.218 E21.10577
G1 X162.024 Y233.418 E21.29596
G1 X161.388 Y233.789 E21.32045
G1 X160.415 Y234.274 E21.35661
G1 X159.832 Y234.525 E21.37772
G1 X158.716 Y234.931 E21.41722
G1 X157.945 Y235.15 E21.44388
G1 X156.819 Y235.385 E21.48213
G1 X156.357 Y235.461 E21.49771
G1 X153.824 Y235.772 E21.58259
G1 X153.229 Y235.813 E21.60242
G1 X151.879 Y235.834 E21.64733
G1 X151.306 Y235.814 E21.6664
G1 X148.813 Y235.597 E21.74963
G1 X148.502 Y235.561 E21.76004
G1 X141.166 Y234.507 E22.00655
G1 X135.857 Y234.082 E22.18369
G1 X130.537 Y233.959 E22.36068
G1 X125.183 Y234.138 E22.53885
G1 X119.878 Y234.617 E22.71602
G1 X114.517 Y235.409 E22.89626
G1 X111.682 Y235.92 E22.99207
G1 X111.258 Y235.98 E23.00632
G1 X109.762 Y236.133 E23.05633
G1 X109.359 Y236.16 E23.06977
G1 X107.92 Y236.203 E23.11765
G1 X107.518 Y236.2 E23.13102
G1 X105.996 Y236.136 E23.18169
G1 X105.59 Y236.104 E23.19523
G1 X104.107 Y235.933 E23.24488
G1 X103.628 Y235.857 E23.26101
G1 X101.772 Y235.478 E23.32402
G1 X101.106 Y235.299 E23.34696
G1 X98.532 Y234.433 E23.43728
G1 X97.957 Y234.203 E23.45788
G1 X96.677 Y233.608 E23.50483
G1 X96.084 Y233.287 E23.52726
G1 X91.578 Y230.489 E23.70367
G1 X90.978 Y230.059 E23.72822
G1 X89.019 Y228.45 E23.81254
G1 X88.911 Y228.36 E23.81721
G1 X87.114 Y226.807 E23.89621
G1 X86.805 Y226.519 E23.91026
G1 X85.526 Y225.233 E23.97058
G1 X85.084 Y224.731 E23.99283
G1 X84.824 Y224.37 E24.00763
G1 X84.394 Y223.719 E24.03358
G1 X84.108 Y223.234 E24.0523
G1 X82.117 Y219.438 E24.19487
G1 X81.934 Y219.055 E24.20899
G1 X80.773 Y216.363 E24.3065
G1 X80.48 Y215.495 E24.33697
G1 X80.108 Y213.997 E24.3883
G1 X80.009 Y213.505 E24.405
G1 X79.564 Y210.634 E24.50163
G1 X79.512 Y210.17 E24.51716
G1 X79.375 Y208.226 E24.58197
G1 X79.37 Y207.523 E24.60536
G1 X79.405 Y206.89 E24.62644
G1 X79.481 Y206.225 E24.6487
G1 X79.621 Y205.629 E24.66907
G1 X80.157 Y203.794 E24.73265
G1 X80.27 Y203.449 E24.74472
G1 X82.183 Y198.192 E24.93079
G1 X82.449 Y197.578 E24.95305
G1 X82.786 Y197 E24.9753
G1 X83.049 Y196.637 E24.99021
G1 X85.001 Y194.164 E25.095
G1 X85.343 Y193.771 E25.11232
G1 X89.22 Y189.703 E25.29923
G1 X89.71 Y189.247 E25.32149
G1 X89.994 Y189.027 E25.33344
G1 X94.042 Y186.102 E25.49955
G1 X94.851 Y185.615 E25.53096
M204 S5000
M205 X30 Y30
G0 F3600 X95.028 Y185.974
M204 S500
M205 X20 Y20
G1 F1800 X97.237 Y184.888 E25.61283
G1 X97.891 Y184.62 E25.63634
G1 X99.859 Y183.966 E25.70531
G1 X100.482 Y183.801 E25.72675
G1 X101.075 Y183.718 E25.74666
G1 X102.908 Y183.568 E25.80783
G1 X103.514 Y183.554 E25.82799
G1 X110.018 Y183.782 E26.04445
G1 X110.76 Y183.862 E26.06927
G1 X115.12 Y184.649 E26.21663
G1 X120.486 Y185.378 E26.39674
G1 X125.821 Y185.798 E26.57473
G1 X131.188 Y185.916 E26.75328
G1 X136.555 Y185.73 E26.9319
G1 X141.89 Y185.242 E27.11008
G1 X147.067 Y184.485 E27.2841
G1 X147.975 Y184.432 E27.31435
G1 X153.479 Y184.597 E27.4975
G1 X154.129 Y184.658 E27.51921
G1 X157.161 Y185.134 E27.62129
G1 X157.791 Y185.273 E27.64275
G1 X158.333 Y185.462 E27.66184
G1 X160.251 Y186.251 E27.73082
G1 X160.88 Y186.561 E27.75415
G1 X165.318 Y189.132 E27.92473
G1 X165.742 Y189.406 E27.94153
G1 X167.178 Y190.436 E28.0003
G1 X167.546 Y190.726 E28.01589
G1 X168.412 Y191.474 E28.05395
G1 X168.818 Y191.864 E28.07267
G1 X169.65 Y192.757 E28.11327
G1 X170.059 Y193.255 E28.1347
G1 X170.356 Y193.715 E28.15291
G1 X173.976 Y200.027 E28.39492
G1 X174.261 Y200.605 E28.41636
G1 X174.466 Y201.188 E28.43691
G1 X174.628 Y201.756 E28.45656
G1 X174.757 Y202.33 E28.47613
G1 X175.724 Y208.15 E28.67235
G1 X175.781 Y208.628 E28.68836
G1 X175.892 Y210.166 E28.73965
G1 X175.892 Y210.903 E28.76416
G1 X175.719 Y213.375 E28.84658
G1 X175.68 Y213.743 E28.85889
G1 X175.387 Y215.807 E28.92823
G1 X175.317 Y216.195 E28.94134
G1 X175.063 Y217.348 E28.98061
G1 X175.009 Y217.571 E28.98824
G1 X174.724 Y218.638 E29.02498
G1 X174.585 Y219.078 E29.04032
G1 X174.179 Y220.191 E29.07973
G1 X173.863 Y220.891 E29.10527
G1 X173.473 Y221.609 E29.13245
G1 X172.968 Y222.371 E29.16285
G1 X168.335 Y228.174 E29.40983
G1 X167.962 Y228.593 E29.42849
G1 X167.32 Y229.24 E29.4588
G1 X166.839 Y229.668 E29.48022
G1 X166.539 Y229.887 E29.49257
G1 X161.8 Y233.087 E29.68276
G1 X161.21 Y233.431 E29.70548
G1 X160.237 Y233.916 E29.74164
G1 X159.695 Y234.149 E29.76126
G1 X158.579 Y234.555 E29.80076
G1 X157.863 Y234.758 E29.82551
G1 X156.737 Y234.993 E29.86377
G1 X156.309 Y235.064 E29.8782
G1 X153.776 Y235.375 E29.96308
G1 X153.223 Y235.413 E29.98151
G1 X151.873 Y235.434 E30.02642
G1 X151.341 Y235.415 E30.04413
G1 X148.848 Y235.198 E30.12736
G1 X148.559 Y235.165 E30.13703
G1 X141.207 Y234.109 E30.38407
G1 X135.898 Y233.684 E30.56121
G1 X130.515 Y233.559 E30.7403
G1 X125.168 Y233.738 E30.91824
G1 X119.818 Y234.221 E31.09691
G1 X114.453 Y235.013 E31.27728
G1 X111.611 Y235.526 E31.37333
G1 X111.217 Y235.582 E31.38657
G1 X109.721 Y235.735 E31.43659
G1 X109.347 Y235.76 E31.44905
G1 X107.908 Y235.803 E31.49694
G1 X107.535 Y235.8 E31.50934
G1 X106.013 Y235.736 E31.56001
G1 X105.635 Y235.707 E31.57262
G1 X104.152 Y235.536 E31.62227
G1 X103.708 Y235.465 E31.63723
G1 X101.852 Y235.086 E31.70023
G1 X101.234 Y234.92 E31.72151
G1 X98.66 Y234.054 E31.81184
G1 X98.126 Y233.84 E31.83097
G1 X96.846 Y233.245 E31.87792
G1 X96.295 Y232.948 E31.89874
G1 X91.789 Y230.15 E32.07515
G1 X91.232 Y229.75 E32.09796
G1 X89.273 Y228.141 E32.18228
G1 X89.173 Y228.057 E32.18662
G1 X87.376 Y226.504 E32.26562
G1 X87.089 Y226.237 E32.27866
G1 X85.81 Y224.951 E32.33898
G1 X85.385 Y224.467 E32.3604
G1 X85.158 Y224.15 E32.37337
G1 X84.728 Y223.499 E32.39932
G1 X84.462 Y223.048 E32.41674
G1 X82.471 Y219.252 E32.55931
G1 X82.301 Y218.896 E32.57243
G1 X81.14 Y216.204 E32.66993
